X:1
T:The Grey Cock
M:3/4
L:1/8
K:G
 bbb| g' f'2 e'd'd'/2-e'/2|e'/2-^d'/2 b- b3 a| bb g'2f'-e'| d'e'/2-f'/2 e'3e'/2-f'/2|\
 g'3/2 e'/2 d'| e'2- e'/2b/2| b3/2 a/2 b e2 f| gb/2-d'/2 e'3b/2-a/2|\
 g3/2 f/2 e2 z||
